client/public/assets/icons/action/new_custom99.svg

<?xml version="1.0"?><svg xmlns="http://www.w3.org/2000/svg" width="52" height="52" viewBox="0 0 52 52"><path fill="#fff" d="m45.2 16.6h-13.4c-0.4-0.9-1-1.7-1.7-2.4l5-6.4c0.8-1 0.6-2.5-0.4-3.3-1-0.8-2.6-0.6-3.4 0.4l-5.5 7.1c-0.5 0-0.9-0.1-1.4-0.1-0.5 0-0.9 0.1-1.3 0.1l-5.6-7.1c-0.8-1-2.3-1.2-3.4-0.4s-1.1 2.3-0.3 3.3l5 6.4c-0.7 0.7-1.3 1.5-1.7 2.4h-10.3c-2.6 0-4.8 2.1-4.8 4.7v22c0 2.6 2.2 4.7 4.8 4.7h38.4c2.6 0 4.8-2.1 4.8-4.7v-22c0-2.6-2.2-4.7-4.8-4.7z m-6.4 25.1c0 0.9-0.7 1.6-1.6 1.6h-28.8c-0.9 0-1.6-0.7-1.6-1.6v-18.8c0-0.9 0.7-1.6 1.6-1.6h28.8c0.9 0 1.6 0.7 1.6 1.6v18.8z m5.6-7.8c-1.4 0-2.4-1-2.4-2.4s1-2.4 2.4-2.4 2.4 1 2.4 2.4-1 2.4-2.4 2.4z m0-7.9c-1.4 0-2.4-1-2.4-2.3 0-1.3 1-2.4 2.4-2.4s2.4 1 2.4 2.4c0 1.3-1 2.3-2.4 2.3z"></path></svg>

<?xml version="1.0" encoding="utf-8"?>
<!-- Generator: Adobe Illustrator 18.1.1, SVG Export Plug-In . SVG Version: 6.00 Build 0)  -->
<svg version="1.1" id="Layer_1" xmlns="http://www.w3.org/2000/svg" xmlns:xlink="http://www.w3.org/1999/xlink" x="0px" y="0px"
	 width="52px" height="52px" viewBox="0 0 52 52" enable-background="new 0 0 52 52" xml:space="preserve">
<path fill="#FFFFFF" d="M45.2,16.6H31.8c-0.4-0.9-1-1.7-1.7-2.4l5-6.4c0.8-1,0.6-2.5-0.4-3.3c-1-0.8-2.6-0.6-3.4,0.4L25.8,12
	c-0.5,0-0.9-0.1-1.4-0.1c-0.5,0-0.9,0.1-1.3,0.1l-5.6-7.1c-0.8-1-2.3-1.2-3.4-0.4S13,6.8,13.8,7.8l5,6.4c-0.7,0.7-1.3,1.5-1.7,2.4
	H6.8c-2.6,0-4.8,2.1-4.8,4.7v22C2,45.9,4.2,48,6.8,48h38.4c2.6,0,4.8-2.1,4.8-4.7v-22C50,18.7,47.8,16.6,45.2,16.6z M38.8,41.7
	c0,0.9-0.7,1.6-1.6,1.6H8.4c-0.9,0-1.6-0.7-1.6-1.6V22.9c0-0.9,0.7-1.6,1.6-1.6h28.8c0.9,0,1.6,0.7,1.6,1.6V41.7z M44.4,33.9
	c-1.4,0-2.4-1-2.4-2.4s1-2.4,2.4-2.4c1.4,0,2.4,1,2.4,2.4S45.8,33.9,44.4,33.9z M44.4,26C43,26,42,25,42,23.7c0-1.3,1-2.4,2.4-2.4
	c1.4,0,2.4,1,2.4,2.4C46.8,25,45.8,26,44.4,26z"/>
</svg>
